X: 14726
T: Gan Ainm
R: reel
M: 4/4
K: Edorian
|:BE~E2 BEFE|D2{F}ED DF [F2A2]|BE~E2 BAFB|AFDF E2dc|
BE~E2 BEFE|D2{F}ED DF [F2A2]|BE~E2 BAFB|1 AFDF E2dc:|2 AFDF E4|
|:e2fe befe|d2fd adfd|e2fe defg|afde fee2|
e2fe befe|d2fd adfd|defg af~f2|afde fee2:|

